X: 31257
T: Paddy From Aghera
R: strathspey
M: 4/4
K: Dmajor
A>dB>G A3 F|G<EB>E G<EB2|A>dB>G A3 G|F>AG>E F<D D2|
A>dB>G A3 F|G<EB>E G<EB2|A>dB>G A3 G|F>AG>E F<DD>g||
f>de>c d>cA>F|G<EB>E G<EE>g|f>de>c d>BA>G|F>AG>E F<DD>g|
f>de>c d3F|G<EB>E G<EE>F|G>AB>c d3A|F>AG>E F<D D2||

